X: 2726
T: Banks Of Newfoundland, The
R: jig
M: 6/8
K: Gmajor
|:A|B2A BGD|GBd gfe|ded BGA|BAA ABc|
B2A BGD|GBd gfe|ded BGA|BGF G2:|
B|d2g gfg|eaa aga|bge dBG|BAA ABc|
d2g gfg|eaa aga|bge dBA|BGF G2B|
d2g gfg|eaa aga|bge dBG|BAA ABc|
B2A BGD|GBd gfe|ded BGA|BGF G2||

